; generated by PrusaSlicer 2.4.2+arm64 on 2022-10-14 at 00:40:03 UTC

; 

; external perimeters extrusion width = 0.65mm
; perimeters extrusion width = 0.65mm
; infill extrusion width = 0.65mm
; solid infill extrusion width = 0.65mm
; top infill extrusion width = 0.57mm
; first layer extrusion width = 0.60mm

M107
;TYPE:Custom
G90 ; use absolute coordinates
M83 ; extruder relative mode
M140 S85 ; set final bed temp
M104 S150 ; set temporary nozzle temp to prevent oozing during homing and auto bed leveling
G4 S10 ; allow partial nozzle warmup
G28 ; home all axis
G1 Z50 F240
G1 X2 Y10 F3000
M104 S240 ; set final nozzle temp
M190 S85 ; wait for bed temp to stabilize
M109 S240 ; wait for nozzle temp to stabilize
G1 Z0.28 F240
G92 E0
G1 Y140 E10 F1500 ; prime the nozzle
G1 X2.3 F5000
G92 E0
G1 Y10 E10 F1200 ; prime the nozzle
G92 E0
G21 ; set units to millimeters
G90 ; use absolute coordinates
M83 ; use relative distances for extrusion
M107
;LAYER_CHANGE
;Z:0.3
;HEIGHT:0.3
;BEFORE_LAYER_CHANGE
G92 E0
;0.3


G1 E-3 F3600
G1 Z.3 F9000
;AFTER_LAYER_CHANGE
;0.3
G1 X70.454 Y94.617
G1 E3 F2400
M204 S500
;TYPE:Skirt/Brim
;WIDTH:0.6
G1 F1200
G1 X72.5 Y93.964 E.14348
G1 X158.5 Y93.964 E5.74527
G1 X160.123 Y94.359 E.11156
G1 X161.383 Y95.454 E.11156
G1 X162.036 Y97.5 E.14348
G1 X162.036 Y155.5 E3.87471
G1 X161.641 Y157.123 E.11156
G1 X160.546 Y158.383 E.11156
G1 X158.5 Y159.036 E.14348
G1 X72.5 Y159.036 E5.74527
G1 X70.877 Y158.641 E.11156
G1 X69.617 Y157.546 E.11156
G1 X68.964 Y155.5 E.14348
G1 X68.964 Y97.5 E3.87471
G1 X69.359 Y95.877 E.11156
G1 X70.395 Y94.685 E.10554
G1 E-2.1 F3600
;WIPE_START
G1 F7200
G1 X72.098 Y94.102 E-.855
;WIPE_END
G1 E-.045 F3600
G1 X92.467 Y100.455 F9000
G1 E3 F2400
;TYPE:External perimeter
G1 F1200
G1 X92.677 Y99.947 E.03671
G1 X93.011 Y99.511 E.03671
G1 X93.447 Y99.177 E.03671
G1 X93.955 Y98.967 E.03671
G1 X94.5 Y98.895 E.03671
G1 X95.045 Y98.967 E.03671
G1 X95.553 Y99.177 E.03671
G1 X95.989 Y99.511 E.03671
G1 X96.323 Y99.947 E.03671
G1 X96.533 Y100.455 E.03671
G1 X96.605 Y101 E.03671
G1 X96.533 Y101.545 E.03671
G1 X96.323 Y102.053 E.03671
G1 X95.989 Y102.489 E.03671
G1 X95.553 Y102.823 E.03671
G1 X95.045 Y103.033 E.03671
G1 X94.5 Y103.105 E.03671
G1 X93.955 Y103.033 E.03671
G1 X93.447 Y102.823 E.03671
G1 X93.011 Y102.489 E.03671
G1 X92.677 Y102.053 E.03671
G1 X92.467 Y101.545 E.03671
G1 X92.395 Y101 E.03671
G1 X92.455 Y100.544 E.0307
G1 X92.078 Y100.067 F9000
G1 E-2.1 F3600
;WIPE_START
G1 F7200
G1 X92.677 Y99.947 E-.30254
G1 X93.011 Y99.511 E-.26104
G1 X93.447 Y99.177 E-.26104
G1 X93.506 Y99.152 E-.03038
;WIPE_END
G1 E-.045 F3600
G1 X99.828 Y108.686 F9000
G1 E3 F2400
;TYPE:Perimeter
G1 F1200
G1 X101.189 Y107.664 E.11371
G1 X102.664 Y106.731 E.1166
G1 X104.209 Y105.92 E.1166
G1 X105.815 Y105.236 E.1166
G1 X107.47 Y104.683 E.1166
G1 X109.165 Y104.265 E.1166
G1 X110.888 Y103.985 E.1166
G1 X112.627 Y103.845 E.1166
G1 X114.373 Y103.845 E.1166
G1 X116.112 Y103.985 E.1166
G1 X117.835 Y104.265 E.1166
G1 X119.53 Y104.683 E.1166
G1 X121.185 Y105.236 E.1166
G1 X122.791 Y105.92 E.1166
G1 X124.336 Y106.731 E.1166
G1 X125.811 Y107.664 E.1166
G1 X127.207 Y108.712 E.1166
G1 X128.513 Y109.87 E.1166
G1 X129.722 Y111.128 E.1166
G1 X130.826 Y112.48 E.1166
G1 X131.817 Y113.917 E.1166
G1 X132.69 Y115.428 E.1166
G1 X133.438 Y117.005 E.1166
G1 X134.057 Y118.637 E.1166
G1 X134.543 Y120.313 E.1166
G1 X134.892 Y122.023 E.1166
G1 X135.102 Y123.756 E.1166
G1 X135.173 Y125.5 E.1166
G1 X135.102 Y127.244 E.1166
G1 X134.892 Y128.977 E.1166
G1 X134.543 Y130.687 E.1166
G1 X134.057 Y132.363 E.1166
G1 X133.438 Y133.995 E.1166
G1 X132.69 Y135.572 E.1166
G1 X131.817 Y137.083 E.1166
G1 X130.826 Y138.52 E.1166
G1 X129.722 Y139.872 E.1166
G1 X128.513 Y141.13 E.1166
G1 X127.263 Y142.238 E.1116
G1 X125.813 Y143.335 E.12143
G1 X124.336 Y144.269 E.11675
G1 X122.791 Y145.08 E.1166
G1 X121.185 Y145.764 E.1166
G1 X119.53 Y146.317 E.1166
G1 X117.835 Y146.735 E.1166
G1 X116.112 Y147.015 E.1166
G1 X114.373 Y147.155 E.1166
G1 X112.627 Y147.155 E.1166
G1 X110.888 Y147.015 E.1166
G1 X109.165 Y146.735 E.1166
G1 X107.47 Y146.317 E.1166
G1 X105.815 Y145.764 E.1166
G1 X104.209 Y145.08 E.1166
G1 X102.664 Y144.269 E.1166
G1 X101.189 Y143.336 E.1166
G1 X100.169 Y142.57 E.0852
G1 X99.793 Y142.288 E.0314
G1 X98.487 Y141.13 E.1166
G1 X97.278 Y139.872 E.1166
G1 X96.174 Y138.52 E.1166
G1 X95.183 Y137.083 E.1166
G1 X94.31 Y135.572 E.1166
G1 X93.562 Y133.995 E.1166
G1 X92.943 Y132.363 E.1166
G1 X92.457 Y130.687 E.1166
G1 X92.108 Y128.977 E.1166
G1 X91.898 Y127.244 E.1166
G1 X91.827 Y125.5 E.1166
G1 X91.898 Y123.756 E.1166
G1 X92.108 Y122.023 E.1166
G1 X92.457 Y120.313 E.1166
G1 X92.943 Y118.637 E.1166
G1 X93.562 Y117.005 E.1166
G1 X94.31 Y115.428 E.1166
G1 X95.183 Y113.917 E.1166
G1 X96.131 Y112.542 E.1116
G1 X97.276 Y111.13 E.12143
G1 X98.487 Y109.87 E.11675
G1 X99.758 Y108.743 E.11347
G1 X100.132 Y109.128 F9000
G1 F1200
G1 X101.493 Y108.105 E.11371
G1 X102.932 Y107.195 E.11371
G1 X104.439 Y106.404 E.11371
G1 X106.005 Y105.737 E.11371
G1 X107.619 Y105.198 E.11371
G1 X109.272 Y104.791 E.11371
G1 X110.952 Y104.518 E.11371
G1 X112.649 Y104.381 E.11371
G1 X114.351 Y104.381 E.11371
G1 X116.048 Y104.518 E.11371
G1 X117.728 Y104.791 E.11371
G1 X119.381 Y105.198 E.11371
G1 X120.995 Y105.737 E.11371
G1 X122.561 Y106.404 E.11371
G1 X124.068 Y107.195 E.11371
G1 X125.507 Y108.105 E.11371
G1 X126.868 Y109.128 E.11371
G1 X128.142 Y110.256 E.11371
G1 X129.321 Y111.484 E.11371
G1 X130.397 Y112.802 E.11371
G1 X131.364 Y114.203 E.11371
G1 X132.215 Y115.677 E.11371
G1 X132.945 Y117.215 E.11371
G1 X133.549 Y118.807 E.11371
G1 X134.022 Y120.442 E.11371
G1 X134.363 Y122.109 E.11371
G1 X134.568 Y123.799 E.11371
G1 X134.637 Y125.5 E.11371
G1 X134.568 Y127.201 E.11371
G1 X134.363 Y128.891 E.11371
G1 X134.022 Y130.558 E.11371
G1 X133.549 Y132.193 E.11371
G1 X132.945 Y133.785 E.11371
G1 X132.215 Y135.323 E.11371
G1 X131.364 Y136.797 E.11371
G1 X130.397 Y138.198 E.11371
G1 X129.321 Y139.516 E.11371
G1 X128.142 Y140.744 E.11371
G1 X126.923 Y141.823 E.10878
G1 X125.508 Y142.894 E.11854
G1 X124.068 Y143.805 E.11381
G1 X122.561 Y144.596 E.11371
G1 X120.995 Y145.263 E.11371
G1 X119.381 Y145.802 E.11371
G1 X117.728 Y146.209 E.11371
G1 X116.048 Y146.482 E.11371
G1 X114.351 Y146.619 E.11371
G1 X112.649 Y146.619 E.11371
G1 X110.952 Y146.482 E.11371
G1 X109.272 Y146.209 E.11371
G1 X107.619 Y145.802 E.11371
G1 X106.005 Y145.263 E.11371
G1 X104.439 Y144.596 E.11371
G1 X102.932 Y143.805 E.11371
G1 X101.493 Y142.895 E.11371
G1 X100.491 Y142.142 E.08376
G1 X100.132 Y141.872 E.02996
G1 X98.858 Y140.744 E.11371
G1 X97.679 Y139.516 E.11371
G1 X96.603 Y138.198 E.11371
G1 X95.636 Y136.797 E.11371
G1 X94.785 Y135.323 E.11371
G1 X94.055 Y133.785 E.11371
G1 X93.451 Y132.193 E.11371
G1 X92.978 Y130.558 E.11371
G1 X92.637 Y128.891 E.11371
G1 X92.432 Y127.201 E.11371
G1 X92.363 Y125.5 E.11371
G1 X92.432 Y123.799 E.11371
G1 X92.637 Y122.109 E.11371
G1 X92.978 Y120.442 E.11371
G1 X93.451 Y118.807 E.11371
G1 X94.055 Y117.215 E.11371
G1 X94.785 Y115.677 E.11371
G1 X95.636 Y114.203 E.11371
G1 X96.561 Y112.863 E.10878
G1 X97.678 Y111.485 E.11854
G1 X98.858 Y110.256 E.11381
G1 X100.065 Y109.187 E.1077
G1 X100.471 Y109.543 F9000
;TYPE:External perimeter
G1 F1200
G1 X101.798 Y108.546 E.11083
G1 X103.2 Y107.659 E.11083
G1 X104.669 Y106.888 E.11083
G1 X106.195 Y106.238 E.11083
G1 X107.769 Y105.713 E.11083
G1 X109.379 Y105.316 E.11083
G1 X111.017 Y105.05 E.11083
G1 X112.671 Y104.916 E.11083
G1 X114.33 Y104.916 E.11083
G1 X115.983 Y105.05 E.11083
G1 X117.621 Y105.316 E.11083
G1 X119.231 Y105.713 E.11083
G1 X120.805 Y106.238 E.11083
G1 X122.331 Y106.888 E.11083
G1 X123.8 Y107.659 E.11083
G1 X125.202 Y108.546 E.11083
G1 X126.529 Y109.543 E.11083
G1 X127.77 Y110.643 E.11083
G1 X128.92 Y111.839 E.11083
G1 X129.969 Y113.124 E.11083
G1 X130.911 Y114.49 E.11083
G1 X131.741 Y115.926 E.11083
G1 X132.452 Y117.425 E.11083
G1 X133.04 Y118.976 E.11083
G1 X133.502 Y120.57 E.11083
G1 X133.834 Y122.195 E.11083
G1 X134.034 Y123.842 E.11083
G1 X134.1 Y125.5 E.11083
G1 X134.034 Y127.158 E.11083
G1 X133.834 Y128.805 E.11083
G1 X133.502 Y130.43 E.11083
G1 X133.04 Y132.024 E.11083
G1 X132.452 Y133.575 E.11083
G1 X131.741 Y135.074 E.11083
G1 X130.911 Y136.51 E.11083
G1 X129.969 Y137.876 E.11083
G1 X128.92 Y139.161 E.11083
G1 X127.77 Y140.357 E.11083
G1 X126.583 Y141.409 E.10595
G1 X125.203 Y142.454 E.11566
G1 X123.8 Y143.341 E.11086
G1 X122.331 Y144.112 E.11083
G1 X120.805 Y144.762 E.11083
G1 X119.231 Y145.287 E.11083
G1 X117.621 Y145.684 E.11083
G1 X115.983 Y145.95 E.11083
G1 X114.33 Y146.084 E.11083
G1 X112.671 Y146.084 E.11083
G1 X111.017 Y145.95 E.11083
G1 X109.379 Y145.684 E.11083
G1 X107.769 Y145.287 E.11083
G1 X106.195 Y144.762 E.11083
G1 X104.669 Y144.112 E.11083
G1 X103.2 Y143.341 E.11083
G1 X101.798 Y142.454 E.11083
G1 X100.813 Y141.714 E.08231
G1 X100.471 Y141.457 E.02852
G1 X99.23 Y140.357 E.11083
G1 X98.08 Y139.161 E.11083
G1 X97.031 Y137.876 E.11083
G1 X96.089 Y136.51 E.11083
G1 X95.259 Y135.074 E.11083
G1 X94.548 Y133.575 E.11083
G1 X93.96 Y132.024 E.11083
G1 X93.498 Y130.43 E.11083
G1 X93.166 Y128.805 E.11083
G1 X92.966 Y127.158 E.11083
G1 X92.9 Y125.5 E.11083
G1 X92.966 Y123.842 E.11083
G1 X93.166 Y122.195 E.11083
G1 X93.498 Y120.57 E.11083
G1 X93.96 Y118.976 E.11083
G1 X94.548 Y117.425 E.11083
G1 X95.259 Y115.926 E.11083
G1 X96.089 Y114.49 E.11083
G1 X96.99 Y113.184 E.10595
G1 X98.08 Y111.84 E.11566
G1 X99.23 Y110.643 E.11086
G1 X100.404 Y109.602 E.10482
G1 X100.375 Y108.951 F9000
G1 E-2.1 F3600
;WIPE_START
G1 F7200
G1 X101.798 Y108.546 E-.83064
G1 X101.841 Y108.519 E-.02436
;WIPE_END
G1 E-.045 F3600
G1 X83.577 Y104.431 F9000
G1 E3 F2400
;TYPE:Perimeter
G1 F1200
G1 X83.268 Y105.314 E.06256
G1 X82.769 Y106.107 E.06256
G1 X82.107 Y106.769 E.06256
G1 X81.314 Y107.268 E.06256
G1 X80.431 Y107.577 E.06256
G1 X79.5 Y107.682 E.06256
G1 X78.569 Y107.577 E.06256
G1 X77.686 Y107.268 E.06256
G1 X76.893 Y106.769 E.06256
G1 X76.231 Y106.107 E.06256
G1 X75.732 Y105.314 E.06256
G1 X75.423 Y104.431 E.06256
G1 X75.318 Y103.5 E.06256
G1 X75.423 Y102.569 E.06256
G1 X75.732 Y101.686 E.06256
G1 X76.231 Y100.893 E.06256
G1 X76.893 Y100.231 E.06256
G1 X77.686 Y99.732 E.06256
G1 X78.569 Y99.423 E.06256
G1 X79.433 Y99.326 E.05807
G1 X80.419 Y99.419 E.06614
G1 X81.314 Y99.732 E.06339
G1 X82.107 Y100.231 E.06256
G1 X82.769 Y100.893 E.06256
G1 X83.268 Y101.686 E.06256
G1 X83.577 Y102.569 E.06256
G1 X83.682 Y103.5 E.06256
G1 X83.587 Y104.341 E.05655
G1 X83.058 Y104.251 F9000
G1 F1200
G1 X83.051 Y104.311 E.00403
G1 X82.782 Y105.081 E.05449
G1 X82.348 Y105.771 E.0545
G1 X81.771 Y106.348 E.0545
G1 X81.081 Y106.782 E.0545
G1 X80.311 Y107.051 E.0545
G1 X79.5 Y107.143 E.05449
G1 X78.689 Y107.051 E.0545
G1 X77.919 Y106.782 E.05449
G1 X77.229 Y106.348 E.0545
G1 X76.652 Y105.771 E.05449
G1 X76.218 Y105.081 E.0545
G1 X75.949 Y104.311 E.0545
G1 X75.857 Y103.5 E.05449
G1 X75.949 Y102.689 E.0545
G1 X76.218 Y101.919 E.05449
G1 X76.652 Y101.229 E.0545
G1 X77.229 Y100.652 E.0545
G1 X77.919 Y100.218 E.05449
G1 X78.689 Y99.949 E.0545
G1 X79.438 Y99.864 E.05033
G1 X80.303 Y99.946 E.05807
G1 X81.081 Y100.218 E.055
G1 X81.771 Y100.652 E.0545
G1 X82.348 Y101.229 E.05449
G1 X82.782 Y101.919 E.0545
G1 X83.051 Y102.689 E.05449
G1 X83.143 Y103.5 E.0545
G1 X83.068 Y104.161 E.04445
G1 X82.526 Y104.191 F9000
;TYPE:External perimeter
G1 F1200
G1 X82.296 Y104.847 E.04643
G1 X81.927 Y105.435 E.04643
G1 X81.435 Y105.927 E.04643
G1 X80.847 Y106.296 E.04643
G1 X80.191 Y106.526 E.04643
G1 X79.5 Y106.604 E.04643
G1 X78.809 Y106.526 E.04643
G1 X78.153 Y106.296 E.04643
G1 X77.565 Y105.927 E.04643
G1 X77.073 Y105.435 E.04643
G1 X76.704 Y104.847 E.04643
G1 X76.474 Y104.191 E.04643
G1 X76.396 Y103.5 E.04643
G1 X76.474 Y102.809 E.04643
G1 X76.704 Y102.153 E.04643
G1 X77.073 Y101.565 E.04643
G1 X77.565 Y101.073 E.04643
G1 X78.153 Y100.704 E.04643
G1 X78.809 Y100.474 E.04643
G1 X79.443 Y100.403 E.04259
G1 X80.188 Y100.473 E.05001
G1 X80.847 Y100.704 E.04661
G1 X81.435 Y101.073 E.04643
G1 X81.927 Y101.565 E.04643
G1 X82.296 Y102.153 E.04643
G1 X82.526 Y102.809 E.04643
G1 X82.604 Y103.5 E.04643
G1 X82.536 Y104.101 E.04042
G1 X82.966 Y104.599 F9000
G1 E-2.1 F3600
;WIPE_START
G1 F7200
G1 X82.296 Y104.847 E-.37194
G1 X81.927 Y105.435 E-.33014
G1 X81.699 Y105.663 E-.15292
;WIPE_END
G1 E-.045 F3600
G1 X93.675 Y146.923 F9000
G1 E3 F2400
;TYPE:Perimeter
G1 F1200
G1 X94.5 Y146.814 E.05556
G1 X95.325 Y146.923 E.05556
G1 X96.093 Y147.241 E.05556
G1 X96.753 Y147.747 E.05556
G1 X97.259 Y148.407 E.05556
G1 X97.577 Y149.175 E.05556
G1 X97.686 Y150 E.05556
G1 X97.577 Y150.825 E.05556
G1 X97.259 Y151.593 E.05556
G1 X96.753 Y152.253 E.05555
G1 X96.093 Y152.759 E.05556
G1 X95.325 Y153.077 E.05556
G1 X94.5 Y153.186 E.05556
G1 X93.675 Y153.077 E.05556
G1 X92.907 Y152.759 E.05556
G1 X92.247 Y152.253 E.05556
G1 X91.741 Y151.593 E.05556
G1 X91.423 Y150.825 E.05556
G1 X91.314 Y150 E.05556
G1 X91.423 Y149.175 E.05556
G1 X91.741 Y148.407 E.05556
G1 X92.247 Y147.747 E.05556
G1 X92.907 Y147.241 E.05556
G1 X93.592 Y146.957 E.04954
G1 X93.815 Y147.445 F9000
G1 F1200
G1 X94.5 Y147.355 E.04614
G1 X95.185 Y147.445 E.04614
G1 X95.823 Y147.709 E.04614
G1 X96.371 Y148.129 E.04614
G1 X96.791 Y148.677 E.04614
G1 X97.055 Y149.315 E.04613
G1 X97.145 Y150 E.04614
G1 X97.055 Y150.685 E.04614
G1 X96.791 Y151.323 E.04614
G1 X96.371 Y151.871 E.04613
G1 X95.823 Y152.291 E.04614
G1 X95.185 Y152.555 E.04613
G1 X94.5 Y152.645 E.04614
G1 X93.815 Y152.555 E.04614
G1 X93.177 Y152.291 E.04613
G1 X92.629 Y151.871 E.04614
G1 X92.209 Y151.323 E.04614
G1 X91.945 Y150.685 E.04613
G1 X91.855 Y150 E.04614
G1 X91.945 Y149.315 E.04614
G1 X92.209 Y148.677 E.04614
G1 X92.629 Y148.129 E.04613
G1 X93.177 Y147.709 E.04613
G1 X93.732 Y147.479 E.04012
G1 X93.955 Y147.967 F9000
;TYPE:External perimeter
G1 F1200
G1 X94.5 Y147.895 E.03671
G1 X95.045 Y147.967 E.03671
G1 X95.553 Y148.177 E.03671
G1 X95.989 Y148.511 E.03671
G1 X96.323 Y148.947 E.03671
G1 X96.533 Y149.455 E.03671
G1 X96.605 Y150 E.03671
G1 X96.533 Y150.545 E.03671
G1 X96.323 Y151.053 E.03671
G1 X95.989 Y151.489 E.03671
G1 X95.553 Y151.823 E.03671
G1 X95.045 Y152.033 E.03671
G1 X94.5 Y152.105 E.03671
G1 X93.955 Y152.033 E.03671
G1 X93.447 Y151.823 E.03671
G1 X93.011 Y151.489 E.03671
G1 X92.677 Y151.053 E.03671
G1 X92.467 Y150.545 E.03671
G1 X92.395 Y150 E.03671
G1 X92.467 Y149.455 E.03671
G1 X92.677 Y148.947 E.03671
G1 X93.011 Y148.511 E.03671
G1 X93.447 Y148.177 E.03671
G1 X93.872 Y148.001 E.0307
G1 X94.097 Y147.436 F9000
G1 E-2.1 F3600
;WIPE_START
G1 F7200
G1 X94.5 Y147.895 E-.30254
G1 X95.045 Y147.967 E-.26104
G1 X95.553 Y148.177 E-.26104
G1 X95.603 Y148.216 E-.03038
;WIPE_END
G1 E-.045 F3600
G1 X149.314 Y150 F9000
G1 E3 F2400
;TYPE:Perimeter
G1 F1200
G1 X149.423 Y149.175 E.05556
G1 X149.741 Y148.407 E.05556
G1 X150.247 Y147.747 E.05556
G1 X150.907 Y147.241 E.05556
G1 X151.675 Y146.923 E.05556
G1 X152.5 Y146.814 E.05556
G1 X153.325 Y146.923 E.05556
G1 X154.093 Y147.241 E.05556
G1 X154.753 Y147.747 E.05556
G1 X155.259 Y148.407 E.05556
G1 X155.577 Y149.175 E.05556
G1 X155.686 Y150 E.05556
G1 X155.577 Y150.825 E.05556
G1 X155.259 Y151.593 E.05556
G1 X154.753 Y152.253 E.05556
G1 X154.093 Y152.759 E.05556
G1 X153.325 Y153.077 E.05556
G1 X152.5 Y153.186 E.05556
G1 X151.675 Y153.077 E.05556
G1 X150.907 Y152.759 E.05556
G1 X150.247 Y152.253 E.05556
G1 X149.741 Y151.593 E.05556
G1 X149.423 Y150.825 E.05556
G1 X149.326 Y150.089 E.04954
G1 X149.855 Y150 F9000
G1 F1200
G1 X149.945 Y149.315 E.04614
G1 X150.209 Y148.677 E.04614
G1 X150.629 Y148.129 E.04613
G1 X151.177 Y147.709 E.04614
G1 X151.815 Y147.445 E.04613
G1 X152.5 Y147.355 E.04614
G1 X153.185 Y147.445 E.04614
G1 X153.823 Y147.709 E.04614
G1 X154.371 Y148.129 E.04613
G1 X154.791 Y148.677 E.04614
G1 X155.055 Y149.315 E.04614
G1 X155.145 Y150 E.04614
G1 X155.055 Y150.685 E.04614
G1 X154.791 Y151.323 E.04614
G1 X154.371 Y151.871 E.04614
G1 X153.823 Y152.291 E.04613
G1 X153.185 Y152.555 E.04614
G1 X152.5 Y152.645 E.04614
G1 X151.815 Y152.555 E.04614
G1 X151.177 Y152.291 E.04614
G1 X150.629 Y151.871 E.04614
G1 X150.209 Y151.323 E.04614
